svg/girl_1015y_negative.svg

<svg width="48" height="48" viewBox="0 0 48 48" fill="none" xmlns="http://www.w3.org/2000/svg">
<path fill-rule="evenodd" clip-rule="evenodd" d="M0 0V47.9994H47.9994V0H0ZM20.0137 3.00196C20.0777 3.07516 20.1537 3.13106 20.2337 3.18156C20.3047 3.22396 20.3807 3.26026 20.4587 3.29096C20.4647 3.29326 20.4707 3.29646 20.4767 3.29876C21.1177 3.54276 21.9897 3.44596 22.2727 4.03705C22.5807 3.81095 22.8417 3.64765 23.0737 3.52336C23.2697 3.41896 23.4417 3.34636 23.5997 3.29686C23.6927 3.26766 23.7737 3.26026 23.8567 3.24606C23.9227 3.23486 23.9917 3.21666 24.0527 3.21286C24.1407 3.20756 24.2257 3.21076 24.3087 3.21676C24.3567 3.22026 24.4077 3.22226 24.4547 3.22846C24.5887 3.24606 24.7277 3.26766 24.8687 3.29296C24.9107 3.30036 24.9547 3.30756 24.9977 3.31446C25.1057 3.33186 25.2247 3.34066 25.3477 3.34956C25.3977 3.35306 25.4477 3.35816 25.5017 3.35936C25.6377 3.36246 25.7927 3.35036 25.9547 3.33196C26.0077 3.32606 26.0527 3.32516 26.1087 3.31636C26.3357 3.28086 26.5877 3.22516 26.8807 3.13086C26.4277 3.35886 26.0827 3.49956 25.7677 3.62105C24.6427 4.05355 24.1977 4.01845 23.3047 4.82224C23.3017 4.82364 23.2957 4.82464 23.2927 4.82614C23.4997 4.82014 23.7057 4.81144 23.9137 4.81044C25.4357 4.80334 26.9617 4.92904 27.9726 5.18744C29.8646 5.67143 31.3146 6.53662 32.3026 7.7714C32.9066 8.52669 33.1946 9.04689 33.5196 9.97258C34.2856 12.8428 33.9216 14.2318 34.2286 17.0798C35.6706 16.6468 35.3796 18.1338 35.1476 19.1188H35.1496C35.1386 19.1608 35.1316 19.2008 35.1206 19.2418C35.1016 19.3208 35.0816 19.4218 35.0656 19.4898C35.0626 19.5038 35.0576 19.5128 35.0546 19.5268C34.2906 22.6267 34.6386 25.3467 35.1496 28.0096V28.0136C35.2106 28.2726 34.9086 28.3666 34.6366 28.0136C34.3886 27.7217 34.1476 27.4887 33.9096 27.2827C34.0106 28.1966 34.1546 29.0946 34.3256 29.9836V29.9876C34.3866 30.2466 34.0846 30.3406 33.8116 29.9876C33.1536 29.2116 32.5336 28.7636 31.9386 28.5286C31.6726 29.3506 31.4426 30.1756 31.2436 31.0036V31.0076C31.1916 31.2686 30.8766 31.2286 30.7746 30.7946C30.4876 29.7876 30.0946 29.1126 29.6346 28.6516C29.0516 29.1976 28.4016 29.6816 27.6537 30.0756C24.7237 31.4646 22.4107 31.1586 20.2657 30.0716C19.5918 29.6826 18.9578 29.2016 18.3648 28.6536C17.9028 29.1146 17.5088 29.7916 17.2208 30.8026C17.1188 31.2366 16.8038 31.2766 16.7518 31.0156V31.0116C16.5528 30.1836 16.3228 29.3586 16.0568 28.5366C15.4618 28.7716 14.8418 29.2196 14.1838 29.9956C13.9118 30.3486 13.6088 30.2546 13.6698 29.9956V29.9916C13.8408 29.1026 13.9848 28.2036 14.0858 27.2907C13.8478 27.4967 13.6068 27.7297 13.3588 28.0206C13.0868 28.3746 12.7848 28.2806 12.8458 28.0206V28.0176C13.3478 25.4027 13.6908 22.7317 12.9798 19.7008C12.9448 19.5678 12.9108 19.4348 12.8848 19.2948C12.8698 19.2378 12.8608 19.1838 12.8458 19.1268H12.8608C12.8278 18.9218 12.7878 18.7198 12.7728 18.5038C12.6908 17.2798 12.9478 16.8928 13.7048 17.0998L13.9198 17.1578C13.9098 15.4668 13.9178 13.7738 14.0038 12.0858C14.3948 8.57929 16.2998 6.29882 19.6228 5.31043C18.8258 5.03274 18.1228 5.20943 17.2208 4.93354C17.0438 4.87954 16.8618 4.81354 16.6678 4.71674C16.9948 4.75304 17.2918 4.75514 17.5778 4.74604C18.7508 4.70884 19.6658 4.41974 20.9337 4.89644C20.9807 4.28275 20.5727 3.98455 20.2657 3.52926L20.2637 3.52726C20.2127 3.45186 20.1657 3.37126 20.1227 3.28516L20.1207 3.28316C20.0787 3.19676 20.0427 3.10346 20.0137 3.00196ZM17.0208 13.5248C16.8348 13.5488 16.7278 13.6788 16.5608 13.9318C15.7588 15.1378 15.2598 16.7138 15.2478 18.0758L15.2418 18.5548L15.0718 18.3198C14.9778 18.1908 14.7138 17.8918 14.4838 17.6558L14.4548 17.6268C14.4558 17.6508 14.4558 17.6678 14.4568 17.6908C12.4778 17.2118 13.3758 20.0947 14.5098 21.5507C14.8088 21.8477 14.9048 22.0177 15.0938 22.5837C16.1298 25.6887 18.0268 28.1916 20.3957 29.5816C22.4337 30.6276 24.6297 30.9236 27.4137 29.5856C30.0726 28.1646 31.4866 25.6127 32.6656 22.8847C32.9876 21.9987 33.0616 21.8617 33.4546 21.4387C34.0996 20.4237 36.0285 17.0548 33.7316 17.6538C33.7286 17.5828 33.7296 17.5598 33.7266 17.4898L33.6476 17.5658C33.4916 17.7178 33.2786 18.0088 33.1756 18.2128C33.0726 18.4158 32.9566 18.6028 32.9176 18.6268C32.8776 18.6508 32.8216 18.3838 32.7926 18.0268C32.7006 16.9068 32.5196 15.9138 32.3766 15.7538C28.3096 12.0488 27.6667 14.9228 22.5637 13.6798C22.5147 13.7098 22.6667 14.0398 22.7827 14.2418C23.0837 14.7628 23.2197 15.3508 23.2187 16.1268C23.2167 17.1418 23.1877 17.1588 22.5037 16.5508C20.9577 15.1758 19.5818 14.3298 17.9608 13.7578C17.4738 13.5858 17.2078 13.5018 17.0208 13.5248ZM20.3067 17.9358C20.8887 17.9358 21.3607 18.4078 21.3607 18.9898C21.3607 19.5728 20.8887 20.0447 20.3067 20.0447C19.7238 20.0457 19.2498 19.5728 19.2498 18.9898C19.2498 18.4068 19.7228 17.9348 20.3067 17.9358ZM27.7477 18.1148C28.3296 18.1148 28.8026 18.5878 28.8026 19.1698C28.8026 19.7518 28.3296 20.2237 27.7477 20.2247C27.1657 20.2237 26.6937 19.7518 26.6927 19.1698C26.6937 18.5878 27.1657 18.1148 27.7477 18.1148ZM20.5387 25.5917C22.5327 26.4337 24.7847 26.6187 27.5157 25.5917C27.4837 26.7677 25.9327 27.7117 24.0287 27.7127C22.1237 27.7127 20.5707 26.7687 20.5387 25.5917ZM3.99995 34.0156H43.9974V44.0154H3.99995V34.0156ZM13.4488 35.3456C12.6738 35.3456 12.0798 35.6026 11.6659 36.1165C11.2559 36.6315 11.0489 37.3855 11.0489 38.3785V39.6885C11.0589 40.6435 11.2689 41.3745 11.6799 41.8865C12.0898 42.3975 12.6838 42.6535 13.4588 42.6535C14.2438 42.6535 14.8388 42.3935 15.2458 41.8725C15.6528 41.3515 15.8568 40.5985 15.8568 39.6145V38.3065C15.8478 37.3515 15.6368 36.6205 15.2268 36.1125C14.8158 35.6016 14.2238 35.3456 13.4488 35.3456ZM8.60149 35.4336L5.65613 36.4875V37.6365L7.34171 37.1145V42.5565H8.75379V35.4336H8.60149ZM23.9793 35.4336L21.0343 36.4875V37.6365L22.7203 37.1145V42.5565H24.1323V35.4336H23.9793ZM27.0673 35.4426L26.6573 39.0585L27.7803 39.3375L27.9173 39.2105C28.1252 39.0345 28.3982 38.9465 28.7332 38.9465C29.0982 38.9465 29.3782 39.0545 29.5772 39.2695C29.7762 39.4835 29.8762 39.7925 29.8762 40.1965C29.8762 40.6165 29.7892 40.9425 29.6162 41.1735C29.4442 41.4015 29.1992 41.5155 28.8802 41.5155C28.5932 41.5155 28.3602 41.4335 28.1812 41.2705C28.0052 41.1045 27.9032 40.8735 27.8743 40.5775H26.4763C26.4893 40.9815 26.6023 41.3415 26.8133 41.6575C27.0283 41.9735 27.3203 42.2185 27.6883 42.3945C28.0562 42.5665 28.4542 42.6535 28.8842 42.6535C29.3762 42.6535 29.8042 42.5535 30.1652 42.3545C30.5272 42.1535 30.8032 41.8725 30.9952 41.5115C31.1902 41.1465 31.2882 40.7345 31.2882 40.2745C31.2882 39.5195 31.0962 38.9315 30.7122 38.5115C30.3282 38.0915 29.7962 37.8805 29.1182 37.8805C28.7402 37.8805 28.3852 37.9705 28.0502 38.1495L28.2262 36.6205H31.0542V35.4426H27.0673ZM31.7182 35.4426L34.0542 39.9765V42.5565H35.5422V39.9765L37.8781 35.4426H36.2761L34.7962 38.6475L33.3252 35.4426H31.7182ZM13.4484 36.4875C13.7904 36.4875 14.0414 36.6235 14.2004 36.8945C14.3634 37.1615 14.4444 37.5895 14.4444 38.1795V39.8685C14.4384 40.4255 14.3574 40.8405 14.2044 41.1105C14.0514 41.3815 13.8034 41.5155 13.4584 41.5155C13.1104 41.5155 12.8544 41.3755 12.6944 41.0955C12.5384 40.8115 12.4604 40.3795 12.4604 39.8005V38.0715C12.4704 37.5275 12.5544 37.1285 12.7104 36.8745C12.8704 36.6175 13.1164 36.4875 13.4484 36.4875ZM40.1791 37.1735C39.5501 37.1735 39.0401 37.3305 38.6491 37.6455C38.2621 37.9585 38.0691 38.3505 38.0691 38.8195C38.0691 39.6245 38.6971 40.1575 39.9541 40.4215C40.3321 40.4995 40.6051 40.5875 40.7741 40.6885C40.9471 40.7865 41.0341 40.9225 41.0341 41.0955C41.0341 41.2615 40.9631 41.3975 40.8231 41.5015C40.6861 41.6025 40.4841 41.6515 40.2141 41.6515C39.9241 41.6515 39.6911 41.5865 39.5191 41.4525C39.3461 41.3195 39.2541 41.1275 39.2411 40.8765H37.9031C37.9031 41.1955 38.0011 41.4925 38.1961 41.7695C38.3921 42.0425 38.6591 42.2595 39.0011 42.4195C39.3461 42.5755 39.7421 42.6535 40.1851 42.6535C40.8391 42.6535 41.3731 42.5045 41.7861 42.2085C42.2001 41.9085 42.4071 41.5185 42.4071 41.0365C42.4071 40.3625 42.0341 39.8885 41.2881 39.6145C41.0471 39.5265 40.7511 39.4485 40.3991 39.3805C40.0481 39.3085 39.7951 39.2265 39.6451 39.1325C39.4991 39.0345 39.4271 38.9055 39.4271 38.7495C39.4271 38.5835 39.4921 38.4465 39.6221 38.3395C39.7521 38.2315 39.9371 38.1795 40.1751 38.1795C40.4521 38.1795 40.6541 38.2445 40.7841 38.3785C40.9141 38.5085 40.9791 38.6765 40.9791 38.8785H42.3921C42.3921 38.3735 42.1901 37.9615 41.7861 37.6455C41.3861 37.3305 40.8501 37.1735 40.1791 37.1735ZM16.8664 38.9405V40.0795H19.6184V38.9405H16.8664Z" fill="#333333"/>
</svg>

<?xml version="1.0" encoding="UTF-8" standalone="no"?>
<!-- Created with Inkscape (http://www.inkscape.org/) -->
<svg id="svg8" xmlns:rdf="http://www.w3.org/1999/02/22-rdf-syntax-ns#" xmlns="http://www.w3.org/2000/svg" height="48" viewBox="0 0 12.7 12.7" width="48" version="1.1" xmlns:cc="http://creativecommons.org/ns#" xmlns:dc="http://purl.org/dc/elements/1.1/">
 <title id="title4753">UIO-icon</title>
 <metadata id="metadata5">
  <rdf:RDF>
   <cc:Work rdf:about="">
    <dc:format>image/svg+xml</dc:format>
    <dc:type rdf:resource="http://purl.org/dc/dcmitype/StillImage"/>
    <dc:title>UIO-icon</dc:title>
    <dc:creator>
     <cc:Agent>
      <dc:title>Joaquín Urbano</dc:title>
     </cc:Agent>
    </dc:creator>
    <dc:rights>
     <cc:Agent>
      <dc:title>GPL</dc:title>
     </cc:Agent>
    </dc:rights>
   </cc:Work>
  </rdf:RDF>
 </metadata>
 <path id="rect959" d="m0 0v48h48v-48h-48zm20.014 3.002c0.064 0.0732 0.14 0.1291 0.22 0.1796 0.071 0.0424 0.147 0.0787 0.225 0.1094 0.006 0.0023 0.012 0.0055 0.018 0.0078 0.641 0.244 1.513 0.1472 1.796 0.7383 0.308-0.2261 0.569-0.3894 0.801-0.5137 0.196-0.1044 0.368-0.177 0.526-0.2265 0.093-0.0292 0.174-0.0366 0.257-0.0508 0.066-0.0112 0.135-0.0294 0.196-0.0332 0.088-0.0053 0.173-0.0021 0.256 0.0039 0.048 0.0035 0.099 0.0055 0.146 0.0117 0.134 0.0176 0.273 0.0392 0.414 0.0645 0.042 0.0074 0.086 0.0146 0.129 0.0215 0.108 0.0174 0.227 0.0262 0.35 0.0351 0.05 0.0035 0.1 0.0086 0.154 0.0098 0.136 0.0031 0.291-0.009 0.453-0.0274 0.053-0.0059 0.098-0.0068 0.154-0.0156 0.227-0.0355 0.479-0.0912 0.772-0.1855-0.453 0.228-0.798 0.3687-1.113 0.4902-1.125 0.4325-1.57 0.3974-2.463 1.2012-0.003 0.0014-0.009 0.0024-0.012 0.0039 0.207-0.006 0.413-0.0147 0.621-0.0157 1.522-0.0071 3.048 0.1186 4.059 0.377 1.892 0.484 3.342 1.3492 4.33 2.584 0.604 0.7553 0.892 1.2755 1.217 2.2012 0.766 2.8703 0.402 4.2593 0.709 7.1073 1.442-0.433 1.151 1.054 0.919 2.039h0.002c-0.011 0.042-0.018 0.082-0.029 0.123-0.019 0.079-0.039 0.18-0.055 0.248-0.003 0.014-0.008 0.023-0.011 0.037-0.764 3.1-0.416 5.82 0.095 8.483v0.004c0.061 0.259-0.241 0.353-0.513 0-0.248-0.292-0.489-0.525-0.727-0.731 0.101 0.914 0.245 1.812 0.416 2.701v0.004c0.061 0.259-0.241 0.353-0.514 0-0.658-0.776-1.278-1.224-1.873-1.459-0.266 0.822-0.496 1.647-0.695 2.475v0.004c-0.052 0.261-0.367 0.221-0.469-0.213-0.287-1.007-0.68-1.682-1.14-2.143-0.583 0.546-1.233 1.03-1.981 1.424-2.93 1.389-5.243 1.083-7.388-0.004-0.674-0.389-1.308-0.87-1.901-1.418-0.462 0.461-0.856 1.138-1.144 2.149-0.102 0.434-0.417 0.474-0.469 0.213v-0.004c-0.199-0.828-0.429-1.653-0.695-2.475-0.595 0.235-1.215 0.683-1.873 1.459-0.272 0.353-0.575 0.259-0.514 0v-0.004c0.171-0.889 0.315-1.788 0.416-2.701-0.238 0.206-0.479 0.439-0.727 0.73-0.272 0.354-0.574 0.26-0.513 0v-0.003c0.502-2.615 0.845-5.286 0.134-8.317-0.035-0.133-0.069-0.266-0.095-0.406-0.015-0.057-0.024-0.111-0.039-0.168h0.015c-0.033-0.205-0.073-0.407-0.088-0.623-0.082-1.224 0.175-1.611 0.932-1.404l0.215 0.058c-0.01-1.691-0.002-3.384 0.084-5.072 0.391-3.5066 2.296-5.7871 5.619-6.7755-0.797-0.2777-1.5-0.101-2.402-0.3769-0.177-0.054-0.359-0.12-0.553-0.2168 0.327 0.0363 0.624 0.0384 0.91 0.0293 1.173-0.0372 2.088-0.3263 3.356 0.1504 0.047-0.6137-0.361-0.9119-0.668-1.3672l-0.002-0.002c-0.051-0.0754-0.098-0.156-0.141-0.2421l-0.002-0.002c-0.042-0.0864-0.078-0.1797-0.107-0.2812zm-2.993 10.523c-0.186 0.024-0.293 0.154-0.46 0.407-0.802 1.206-1.301 2.782-1.313 4.144l-0.006 0.479-0.17-0.235c-0.094-0.129-0.358-0.428-0.588-0.664l-0.029-0.029c0.001 0.024 0.001 0.041 0.002 0.064-1.979-0.479-1.081 2.404 0.053 3.86 0.299 0.297 0.395 0.467 0.584 1.033 1.036 3.105 2.933 5.608 5.302 6.998 2.038 1.046 4.234 1.342 7.018 0.004 2.659-1.421 4.073-3.973 5.252-6.701 0.322-0.886 0.396-1.023 0.789-1.446 0.645-1.015 2.574-4.384 0.277-3.785-0.003-0.071-0.002-0.094-0.005-0.164l-0.079 0.076c-0.156 0.152-0.369 0.443-0.472 0.647-0.103 0.203-0.219 0.39-0.258 0.414-0.04 0.024-0.096-0.243-0.125-0.6-0.092-1.12-0.273-2.113-0.416-2.273-4.067-3.705-4.71-0.831-9.813-2.074-0.049 0.03 0.103 0.36 0.219 0.562 0.301 0.521 0.437 1.109 0.436 1.885-0.002 1.015-0.031 1.032-0.715 0.424-1.546-1.375-2.922-2.221-4.543-2.793-0.487-0.172-0.753-0.256-0.94-0.233zm3.286 4.411c0.582 0 1.054 0.472 1.054 1.054 0 0.583-0.472 1.055-1.054 1.055-0.583 0.001-1.057-0.472-1.057-1.055s0.473-1.055 1.057-1.054zm7.441 0.179c0.582 0 1.055 0.473 1.055 1.055s-0.473 1.054-1.055 1.055c-0.582-0.001-1.054-0.473-1.055-1.055 0.001-0.582 0.473-1.055 1.055-1.055zm-7.209 7.477c1.994 0.842 4.246 1.027 6.977 0-0.032 1.176-1.583 2.12-3.487 2.121-1.905 0-3.458-0.944-3.49-2.121zm-16.539 8.424h39.998v10h-39.998v-10zm9.449 1.33c-0.775 0-1.369 0.257-1.783 0.771-0.41 0.515-0.617 1.269-0.617 2.262v1.31c0.01 0.955 0.22 1.686 0.631 2.198 0.41 0.511 1.004 0.767 1.779 0.767 0.785 0 1.38-0.26 1.787-0.781s0.611-1.274 0.611-2.258v-1.308c-0.009-0.955-0.22-1.686-0.63-2.194-0.411-0.511-1.003-0.767-1.778-0.767zm-4.8474 0.088l-2.9454 1.054v1.149l1.6856-0.522v5.442h1.4121v-7.123h-0.1523zm15.378 0l-2.945 1.054v1.149l1.686-0.522v5.442h1.412v-7.123h-0.153zm3.088 0.009l-0.41 3.616 1.123 0.279 0.137-0.127c0.208-0.176 0.481-0.264 0.816-0.264 0.365 0 0.645 0.108 0.844 0.323 0.199 0.214 0.299 0.523 0.299 0.927 0 0.42-0.087 0.746-0.26 0.977-0.172 0.228-0.417 0.342-0.736 0.342-0.287 0-0.52-0.082-0.699-0.245-0.176-0.166-0.278-0.397-0.307-0.693h-1.398c0.013 0.404 0.126 0.764 0.337 1.08 0.215 0.316 0.507 0.561 0.875 0.737 0.368 0.172 0.766 0.259 1.196 0.259 0.492 0 0.92-0.1 1.281-0.299 0.362-0.201 0.638-0.482 0.83-0.843 0.195-0.365 0.293-0.777 0.293-1.237 0-0.755-0.192-1.343-0.576-1.763s-0.916-0.631-1.594-0.631c-0.378 0-0.733 0.09-1.068 0.269l0.176-1.529h2.828v-1.178h-3.987zm4.651 0l2.336 4.534v2.58h1.488v-2.58l2.336-4.534h-1.602l-1.48 3.205-1.471-3.205h-1.607zm-18.27 1.045c0.342 0 0.593 0.136 0.752 0.407 0.163 0.267 0.244 0.695 0.244 1.285v1.689c-0.006 0.557-0.087 0.972-0.24 1.242-0.153 0.271-0.401 0.405-0.746 0.405-0.348 0-0.604-0.14-0.764-0.42-0.156-0.284-0.234-0.716-0.234-1.295v-1.729c0.01-0.544 0.094-0.943 0.25-1.197 0.16-0.257 0.406-0.387 0.738-0.387zm26.731 0.686c-0.629 0-1.139 0.157-1.53 0.472-0.387 0.313-0.58 0.705-0.58 1.174 0 0.805 0.628 1.338 1.885 1.602 0.378 0.078 0.651 0.166 0.82 0.267 0.173 0.098 0.26 0.234 0.26 0.407 0 0.166-0.071 0.302-0.211 0.406-0.137 0.101-0.339 0.15-0.609 0.15-0.29 0-0.523-0.065-0.695-0.199-0.173-0.133-0.265-0.325-0.278-0.576h-1.338c0 0.319 0.098 0.616 0.293 0.893 0.196 0.273 0.463 0.49 0.805 0.65 0.345 0.156 0.741 0.234 1.184 0.234 0.654 0 1.188-0.149 1.601-0.445 0.414-0.3 0.621-0.69 0.621-1.172 0-0.674-0.373-1.148-1.119-1.422-0.241-0.088-0.537-0.166-0.889-0.234-0.351-0.072-0.604-0.154-0.754-0.248-0.146-0.098-0.218-0.227-0.218-0.383 0-0.166 0.065-0.303 0.195-0.41 0.13-0.108 0.315-0.16 0.553-0.16 0.277 0 0.479 0.065 0.609 0.199 0.13 0.13 0.195 0.298 0.195 0.5h1.413c0-0.505-0.202-0.917-0.606-1.233-0.4-0.315-0.936-0.472-1.607-0.472zm-23.313 1.767v1.139h2.752v-1.139h-2.752z" fill-rule="evenodd" transform="scale(.26458)" fill="#333"/>
</svg>
